X: 2013
T: Ash Grove, The
R: waltz
M: 3/4
K: Dmajor
|:"A"A2|"D"d2f2ag|"D"f2d2B2|"G"efg fed|"A"fed cBA|
"D"d2fdec|"G"d2B2G2|"D"A2B2c2|"D"d4:|
|:ABc|"D"d2fabc'|"D"d'2a2f2|"A"ed efga|"A7"b2g2e2|
"D"dcd efg|"Bm"a2f2d2|"A"e2a2"E"^g2|"A"a4 aa|
"D"f2d2BB|c2d2e2|"G"efg fed|"A"fed cBA|
"D"d2fdec|"G"d2B2G2|"D"A2B2c2|"D"d4:|

